X:1
T:Amour ne fait
T:Jean de Castro
T:Source : La fleur des chansons à 3---Louvain---P.Phalèse---1574. Editor : André Vierendeels (14/018) Notes : Original clefs : C1, C3, C4 Original note values have been halved Editorial accidentals above the staff
T:Amour ne fait
T:©
T:©
T:©
T:©
T:©
C:Jean de Castro
Z:©
%%score [ 1 [ 2 3 ] ]
L:1/8
Q:1/4=120
M:2/2
K:C
V:1 treble nm="Soprano" snm="S"
V:2 treble-8 nm="Tenor 1" snm="T 1"
V:3 treble-8 nm="Tenor 2" snm="T 2"
V:1
 z2 A2 A2 A2 | ^GG A4 d2 | cd B2 A4 | z2 A2 A2 A2 | G2 A2 B2 c2 | B2 d2 cB/A/ B2 | c2 z A A2 E2 | %7
w: A- mour ne|fait que tour- men-|ter mon a- me,|A- mour ne|fait que tour- men-|ter mon a- * * *|me d'un feu qui|
"^-natural" c2 B2 G2 A2 | G2 FE F2 F2 | E4 z4 | z2 A2 G2 FE | F2 F2 E4 | z8 | A4 G2 G2 | %14
w: l'ard et point in|ces- * * * sam-|ment,|in ces- * *|* sam- ment,||mais moins que|
 B2 B2 c2 B2 | c2 A2 AGFE | D2 A2 d4- | d2 c2 B2 B2 | cBAG FE ^F2 | z4 z2 D2 | D2 D2 ^C2 D2 | %21
w: rien i'e- sti- me|ce tour- ment, _ _ _|_ i'e- sti-|* me ce tour-|ment, _ _ _ _ _ _|puis-|que m'a- my- e'aus-|
 E2 F2 G2 A2 | F4 E2 E2 |"^-natural" A2 A2 c2 d2- | dc B2 AB c2 | G2 A2 B2 c2- | cB/A/ B2 c4 | %27
w: sy sent quel- que|flam- me, A-|mour m'a fait ser-|* vi- teur, ser- vi- teur|d'u- ne da- *|* * * * me,|
 z4 z2 A2 |"^-natural" A2 c2 B2 A2 | G2 F2 E2 F2- | FE E4 D2 | E8 | z8 | z4 z2 d2- | d2 c2 B2 A2- | %35
w: la-|quel- l'en gré tout|mon ser- vi- ce|_ _ _ _|prend,||dont|_ ie se- rois|
 A2 D2 E2 ^F2 | G2 A2 D2 A2- | A^G/^F/ G2 A4 | z2 A2 A4- | A2 A2 G4- | G4 A4 |"^-natural" B6 c2 | %42
w: _ pour l'o- bé-|ir con- tent, con|_ _ _ _ tent;|pas- ser|_ au fil|_ d'u-|ne tren-|
 A4 B2 c2- | cB A3 ^G/^F/ G2 | A8 |] %45
w: chan- te la-||me.|
V:2
 d3 ^c defd | e2 f3 e^fg | a^f g2 z2 f2 | f2 f2 e2 f2 | cdef g2 g2- | g2 a4 g2 | f2 e2 d2 ^c2 | %7
w: A- * * * * *|* mour, _ _ _|_ _ _ A-|mour ne fait, ne|fait _ _ _ _ que|_ tour- men-|ter mon a- me|
 z2 e2 e2 A2 |"^-natural" e2 dc d2 d2 | c2 z c B2 c2 | A4 z4 | z2 d2 ^c2 c2 | d6 g2- | %13
w: d'un feu qui|l'ard _ _ _ et|point in- ces- sa-|ment,|mais moins que|rien i'e-|
 g2 f2 d2 e2- | e2 d2 e2 gf | edcB A2 a2- | aadd ^f4 | g2 a4 ^g2 | a4 z2 a2 | a2 a2 ^g2 a2 | %20
w: * sti- me ce|_ tour- ment, mais _|_ _ _ _ _ moins|_ que rien i'e- sti-|me ce tour-|ment, puis-|que m'a- my- e'aus-|
 a2 g2 e2 f2 | c2 d2 e2 fe | dc d2 ^c4 | z2 d2 A2 a2- | a2 g2 f2 e2 | edef g2 ee | d4 e4 | %27
w: sy sent quel- que|flam- * * * *|* * * me,|A- mour m'a|_ fait ser- vi-|teur _ _ _ _ d'u- ne|da- me,|
 z2 e2 e2 ^c2 | d2 a2 g2 f2 | e2 A2 A4 | z2 c2 c2 A2 | c2 B2 ^c4 | z2 e4 A2 | e2 f4 d2 | %34
w: la- quel- l'en|gré tout mon ser-|vi- ce prend,|tout mon ser-|vi- ce prend,|dont ie|se- rois pour|
 e3 e d2 d2 | A2 B2 ^c2 d2 |"^#" B c2 d z dcc | B2 B2 d4 | A2 DE FGAB |"^#" ^c2 d2 BB c2- | %40
w: l'o- bé- ir, dont|ie se- rois pour|l'o- bé- ir, pour l'o- be-|ir con- tent,|pas- ser _ _ _ _ _|_ au fil d'u- ne|
 c2 B2 A2 D2 | d4 e4 | z2 f2 d2 e2 | A3 A cB/A/ B2 | c8 |] %45
w: _ tren- chan- te|la- me,|d'u- ne tren-|chan- te la- * * *|me.|
V:3
 z8 | z2 d3 ^cde | fd e2 f2 d2 |"^-natural" d2 d2 ^c2 d2 | e2 A2 e4- | e2 f2 e4 | A4 z2 A2 | %7
w: |A- * * *|* * * mour, A-|mour ne fait que|tour- men- ter|_ mon a-|me d'un|
"^-natural" A2 E2 c4 | z8 | z2 A2 G2 FE | F2 F2 E2 DC | D4 z2 A2 | G2 G2 B4 | d4 B2 c2 | %14
w: feu qui l'ard||in- ces- * *|* sam- * * *|ment, mais|moins que rien|i'e- sti- me,|
 z2 G2 E2 E2 | A4 F4 | f4 d4 | e4 e4 | A2 d2 d2 d2 | ^c2 d2 e2 f2 | F2 G2 A2 D2 | z4 z2 D2 | %22
w: mains moins que|rien i'e-|sti- me|ce tour-|ment, puis- que m'a-|my- e'aus- sy sent|quel- que flam- me,|A-|
 D4 A4- | A2 f2 e2 d2 | e4 A3 B | c2 A2 G4- | G4 c2 z A | A2 E2 A4 | z8 | z2 D2 ^C2 D2 | A4 F4 | %31
w: mour m'a|_ fait ser- vi-|teur d'u- *|* ne da-|* me, la|quel- l'en gré||tout mon ser-|vi- ve|
 E4 z2 A2- |"^-natural" A2 E2 A2 c2- | c2 A2 _B3 B | A4 z4 | z4 z2 D2 |"^#" E2 F2 G2 A2 | %37
w: prend, dont|_ ie se- rois|_ pour l'o- bé-|ir,|pour|o- bé- ir con-|
"^#""^#" E4 z2 D2 |"^-natural" DEFG ABcd |"^#" e2 f2 dd e2- | e2 d2 ^c2 d2 | G6 A2 | z2 D2 G2 E2 | %43
w: tent, pas-|ser _ _ _ _ _ _ _|_ au fil d'u- ne|_ tren- chan- te|la- me,|d'u- ne tren-|
 F3 D E4 | A8 |] %45
w: chan- te la-|me.|

